public/img/assets/icons/weather-conditions/small/showers-night.svg

<svg width="24" height="24" viewBox="0 0 24 24" fill="none" xmlns="http://www.w3.org/2000/svg">
<path d="M13.001 6.00998C16.17 6.00998 17.967 8.10698 18.229 10.64H18.309C19.2867 10.6389 20.2248 11.0262 20.9169 11.7167C21.6091 12.4072 21.9987 13.3443 22 14.322C21.9995 14.8062 21.9036 15.2857 21.7177 15.7329C21.5319 16.1801 21.2598 16.5863 20.9169 16.9283C20.5741 17.2703 20.1672 17.5414 19.7196 17.7261C19.2719 17.9109 18.7923 18.0056 18.308 18.005L17.676 18L16.134 20.63C16.0399 20.7964 15.8858 20.9206 15.7032 20.9772C15.5206 21.0338 15.3233 21.0185 15.1516 20.9345C14.9799 20.8505 14.8467 20.7041 14.7793 20.5252C14.7119 20.3463 14.7154 20.1484 14.789 19.972L14.834 19.881L15.944 18H13.808L12.265 20.63C12.1699 20.7944 12.016 20.9167 11.8342 20.972C11.6525 21.0273 11.4566 21.0117 11.286 20.9281C11.1154 20.8446 10.9828 20.6994 10.9151 20.522C10.8473 20.3445 10.8494 20.1479 10.921 19.972L10.966 19.881L12.076 18H9.93901L8.39701 20.63C8.30192 20.7944 8.14797 20.9167 7.96625 20.972C7.78453 21.0273 7.58858 21.0117 7.41797 20.9281C7.24736 20.8446 7.1148 20.6994 7.04706 20.522C6.97932 20.3445 6.98145 20.1479 7.05301 19.972L7.09801 19.881L8.20701 18H7.60001C5.56101 18 4.00201 16.356 4.00201 14.322C4.00267 13.8378 4.09869 13.3585 4.28458 12.9114C4.47048 12.4643 4.74261 12.0582 5.08545 11.7163C5.42828 11.3744 5.8351 11.1034 6.28268 10.9187C6.73026 10.734 7.20983 10.6393 7.69401 10.64H7.77401C8.03701 8.08998 9.83301 6.00998 13 6.00998H13.001ZM6.58801 2.00198C7.38495 2.045 8.1604 2.27595 8.85101 2.67598C9.86528 3.25903 10.646 4.17578 11.06 5.26998C9.07501 5.83298 7.65501 7.27198 7.06601 9.21598L6.99601 9.46198L6.93901 9.69998L6.73301 9.73798C5.60655 9.97661 4.60796 10.623 3.92901 11.553L3.77401 11.469C3.12068 11.0926 2.55968 10.575 2.13201 9.95398C2.06676 9.85935 2.02413 9.75098 2.00742 9.63725C1.99071 9.52352 2.00036 9.40746 2.03564 9.29806C2.07092 9.18865 2.13087 9.08882 2.21087 9.00627C2.29087 8.92372 2.38877 8.86067 2.49701 8.82198C4.14001 8.23398 5.02501 7.57198 5.53101 6.60598C6.08401 5.55098 6.18601 4.43198 5.81901 2.92898C5.791 2.81511 5.79008 2.69626 5.81632 2.58198C5.84256 2.46769 5.89524 2.36115 5.97012 2.2709C6.04499 2.18066 6.13999 2.10923 6.24747 2.06236C6.35496 2.01548 6.47193 1.99446 6.58901 2.00098L6.58801 2.00198Z" fill="#D580FF"/>
</svg>

<svg width="24" height="24" fill="none" xmlns="http://www.w3.org/2000/svg"><path d="M13.001 6.01c3.169 0 4.966 2.097 5.228 4.63h.08A3.687 3.687 0 0 1 22 14.322a3.686 3.686 0 0 1-3.692 3.683L17.676 18l-1.542 2.63a.75.75 0 0 1-1.345-.658l.045-.091L15.944 18h-2.136l-1.543 2.63a.75.75 0 0 1-1.344-.658l.045-.091L12.076 18H9.939l-1.542 2.63a.75.75 0 0 1-1.344-.658l.045-.091L8.207 18H7.6c-2.039 0-3.598-1.644-3.598-3.678a3.687 3.687 0 0 1 3.692-3.682h.08C8.037 8.09 9.833 6.01 13 6.01h.001ZM6.588 2.002a5.059 5.059 0 0 1 2.263.674A5.056 5.056 0 0 1 11.06 5.27c-1.985.563-3.405 2.002-3.994 3.946l-.07.246-.057.238-.206.038a4.67 4.67 0 0 0-2.804 1.815l-.155-.084a5.062 5.062 0 0 1-1.642-1.515.75.75 0 0 1 .365-1.132c1.643-.588 2.528-1.25 3.034-2.216.553-1.055.655-2.174.288-3.677a.75.75 0 0 1 .77-.928l-.001.001Z" fill="#D580FF"/></svg>
